static/logos/canny-frame-color.svg

<svg width="100" height="32" viewBox="0 0 100 32" fill="none" xmlns="http://www.w3.org/2000/svg">
<g clip-path="url(#clip0_1_3300)">
<path d="M12.1456 3.40996C15.8238 3.40996 18.4674 5.28736 19.4253 8.54406L19.4636 8.69732H23.1418L23.1034 8.46743C22.069 3.2567 17.8927 0 12.1839 0C5.24904 0 0 5.4023 0 12.6054C0 19.8084 5.24904 25.2107 12.1839 25.2107C17.8927 25.2107 22.069 21.954 23.1418 16.7433L23.1801 16.5134H19.5019L19.4636 16.6667C18.5057 19.9234 15.8238 21.8008 12.1839 21.8008C7.16475 21.8008 3.7931 18.1226 3.7931 12.6054C3.75479 7.12644 7.12644 3.40996 12.1456 3.40996Z" fill="#525DF9"/>
<path d="M42.1872 22.2223C41.306 22.2223 40.8462 21.6859 40.8462 20.6131V12.5288C40.8462 9.15714 38.0876 6.89661 33.988 6.89661C31.1144 6.89661 27.5895 8.39086 26.9765 12.6054L26.9382 12.8353H30.1565L30.1949 12.682C30.7313 10.4981 32.4171 10.0384 33.7581 10.0384C36.0569 10.0384 37.3979 11.0729 37.3979 12.8736V13.8698L32.1872 14.4062C29.2753 14.7127 26.1719 16.3219 26.1719 20.0001C26.1719 23.1035 28.4707 25.1725 31.8424 25.1725C34.3328 25.1725 36.3634 23.8698 37.5895 22.5671C38.0876 24.1763 39.3136 25.0575 41.0761 25.0575C41.7274 25.0575 42.3021 24.9426 43.0684 24.7127L43.1834 24.6744V21.9924L42.9535 22.069C42.7236 22.184 42.4937 22.2223 42.1872 22.2223ZM37.4362 16.6667V19.4637C35.6738 21.2261 34.0263 22.0307 32.2638 22.0307C31.4975 22.0307 29.6585 21.8008 29.6585 19.8468C29.6585 18.3909 30.7313 17.433 32.4937 17.2031L37.4362 16.6667Z" fill="#525DF9"/>
<path d="M56.1322 6.89661C53.6417 6.89661 51.5345 8.08435 50.3084 9.23377V7.24143H46.8984V24.866H50.3084V13.1418C51.1513 11.9158 52.8754 9.96174 55.2892 9.96174C57.4348 9.96174 58.6226 11.1495 58.6226 13.3334V24.866H62.0325V12.7587C62.0325 9.08051 59.8103 6.89661 56.1322 6.89661Z" fill="#525DF9"/>
<path d="M75.0228 6.89661C72.5324 6.89661 70.4251 8.08435 69.199 9.23377V7.24143H65.7891V24.866H69.199V13.1418C70.0419 11.9158 71.7661 9.96174 74.1799 9.96174C76.3255 9.96174 77.5132 11.1495 77.5132 13.3334V24.866H80.9232V12.7587C80.9232 9.08051 78.7009 6.89661 75.0228 6.89661Z" fill="#525DF9"/>
<path d="M96.2842 7.24133L91.4183 19.8467L91.1118 18.3524L86.4375 7.24133H82.8359L89.7708 23.908L86.5907 31.7624H90.039L99.7708 7.24133H96.2842Z" fill="#525DF9"/>
</g>
<defs>
<clipPath id="clip0_1_3300">
<rect width="100" height="31.8008" fill="white"/>
</clipPath>
</defs>
</svg>

<svg xmlns="http://www.w3.org/2000/svg" width="200" height="64" fill="none" viewBox="0 0 100 32"><g fill="#525DF9" clip-path="url(#a)"><path d="M12.146 3.41c3.678 0 6.321 1.877 7.28 5.134l.038.153h3.678l-.039-.23C22.07 3.257 17.893 0 12.183 0 5.25 0 0 5.402 0 12.605s5.249 12.606 12.184 12.606c5.709 0 9.885-3.257 10.958-8.468l.038-.23h-3.678l-.038.154c-.958 3.256-3.64 5.134-7.28 5.134-5.02 0-8.39-3.678-8.39-9.196-.04-5.479 3.332-9.195 8.352-9.195ZM42.187 22.222c-.881 0-1.34-.536-1.34-1.609V12.53c0-3.372-2.76-5.632-6.859-5.632-2.874 0-6.398 1.494-7.011 5.708l-.039.23h3.219l.038-.153c.536-2.184 2.222-2.644 3.563-2.644 2.299 0 3.64 1.035 3.64 2.836v.996l-5.21.536c-2.913.307-6.016 1.916-6.016 5.594 0 3.104 2.299 5.172 5.67 5.172 2.49 0 4.521-1.302 5.748-2.605.498 1.61 1.724 2.49 3.486 2.49.651 0 1.226-.114 1.992-.344l.115-.039v-2.682l-.23.077c-.23.115-.46.153-.766.153Zm-4.75-5.555v2.797c-1.763 1.762-3.41 2.567-5.173 2.567-.767 0-2.606-.23-2.606-2.184 0-1.456 1.073-2.414 2.836-2.644l4.942-.536ZM56.132 6.897c-2.49 0-4.597 1.187-5.824 2.337V7.24h-3.41v17.625h3.41V13.142c.843-1.226 2.567-3.18 4.981-3.18 2.146 0 3.334 1.188 3.334 3.371v11.533h3.41V12.759c0-3.678-2.223-5.862-5.9-5.862ZM75.023 6.897c-2.49 0-4.598 1.187-5.824 2.337V7.24h-3.41v17.625h3.41V13.142c.843-1.226 2.567-3.18 4.98-3.18 2.147 0 3.334 1.188 3.334 3.371v11.533h3.41V12.759c0-3.678-2.222-5.862-5.9-5.862ZM96.284 7.241l-4.866 12.606-.306-1.495-4.674-11.11h-3.602l6.935 16.666-3.18 7.854h3.448l9.732-24.52h-3.487Z"/></g><defs><clipPath id="a"><path fill="#fff" d="M0 0h100v31.801H0z"/></clipPath></defs></svg>
